X:7
M:C
L:1/8
K:D
a | fafd egec | defd A3G | FGAB cdef | gab(d d)cBA | fafd egec |
defd A3 G | FAdf (ga/b/)ag | fedc d3::A | AGFG FAdf | gfe(d d)cBA |

